src/assets/icons/instagram.svg

<svg width="13" height="13" viewBox="0 0 13 13" fill="none" xmlns="http://www.w3.org/2000/svg">
<path d="M6.125 3.60547C5.5599 3.60547 5.03125 3.7513 4.53906 4.04297C4.0651 4.31641 3.68229 4.69922 3.39062 5.19141C3.11719 5.66536 2.98047 6.1849 2.98047 6.75C2.98047 7.3151 3.11719 7.84375 3.39062 8.33594C3.68229 8.8099 4.0651 9.19271 4.53906 9.48438C5.03125 9.75781 5.5599 9.89453 6.125 9.89453C6.6901 9.89453 7.20964 9.75781 7.68359 9.48438C8.17578 9.19271 8.55859 8.8099 8.83203 8.33594C9.1237 7.84375 9.26953 7.3151 9.26953 6.75C9.26953 6.1849 9.1237 5.66536 8.83203 5.19141C8.55859 4.69922 8.17578 4.31641 7.68359 4.04297C7.20964 3.7513 6.6901 3.60547 6.125 3.60547ZM6.125 8.80078C5.5599 8.80078 5.07682 8.60026 4.67578 8.19922C4.27474 7.79818 4.07422 7.3151 4.07422 6.75C4.07422 6.1849 4.27474 5.70182 4.67578 5.30078C5.07682 4.89974 5.5599 4.69922 6.125 4.69922C6.6901 4.69922 7.17318 4.89974 7.57422 5.30078C7.97526 5.70182 8.17578 6.1849 8.17578 6.75C8.17578 7.3151 7.97526 7.79818 7.57422 8.19922C7.17318 8.60026 6.6901 8.80078 6.125 8.80078ZM10.1445 3.46875C10.1263 3.66927 10.0443 3.84245 9.89844 3.98828C9.77083 4.13411 9.60677 4.20703 9.40625 4.20703C9.20573 4.20703 9.03255 4.13411 8.88672 3.98828C8.74089 3.84245 8.66797 3.66927 8.66797 3.46875C8.66797 3.26823 8.74089 3.09505 8.88672 2.94922C9.03255 2.80339 9.20573 2.73047 9.40625 2.73047C9.60677 2.73047 9.77995 2.80339 9.92578 2.94922C10.0716 3.09505 10.1445 3.26823 10.1445 3.46875ZM12.2227 4.20703C12.1862 3.67839 12.1042 3.22266 11.9766 2.83984C11.8125 2.38411 11.5573 1.99219 11.2109 1.66406C10.8828 1.31771 10.4909 1.0625 10.0352 0.898438C9.65234 0.770833 9.19661 0.697917 8.66797 0.679688C8.15755 0.643229 7.3099 0.625 6.125 0.625C4.9401 0.625 4.08333 0.643229 3.55469 0.679688C3.04427 0.697917 2.59766 0.770833 2.21484 0.898438C1.75911 1.0625 1.35807 1.31771 1.01172 1.66406C0.683594 1.99219 0.4375 2.38411 0.273438 2.83984C0.145833 3.22266 0.0638021 3.67839 0.0273438 4.20703C0.00911458 4.71745 0 5.5651 0 6.75C0 7.9349 0.00911458 8.79167 0.0273438 9.32031C0.0638021 9.83073 0.145833 10.2773 0.273438 10.6602C0.4375 11.1159 0.683594 11.5169 1.01172 11.8633C1.35807 12.1914 1.75911 12.4284 2.21484 12.5742C2.59766 12.7201 3.04427 12.8021 3.55469 12.8203C4.08333 12.8568 4.9401 12.875 6.125 12.875C7.3099 12.875 8.15755 12.8568 8.66797 12.8203C9.19661 12.8021 9.65234 12.7292 10.0352 12.6016C10.4909 12.4375 10.8828 12.1914 11.2109 11.8633C11.5573 11.5169 11.8125 11.1159 11.9766 10.6602C12.1042 10.2773 12.1771 9.83073 12.1953 9.32031C12.2318 8.79167 12.25 7.9349 12.25 6.75C12.25 5.5651 12.2409 4.71745 12.2227 4.20703ZM10.9102 10.3594C10.6914 10.9062 10.2995 11.2982 9.73438 11.5352C9.44271 11.6445 8.95052 11.7174 8.25781 11.7539C7.875 11.7721 7.3099 11.7812 6.5625 11.7812H5.6875C4.95833 11.7812 4.39323 11.7721 3.99219 11.7539C3.31771 11.7174 2.82552 11.6445 2.51562 11.5352C1.96875 11.3164 1.57682 10.9245 1.33984 10.3594C1.23047 10.0495 1.15755 9.55729 1.12109 8.88281C1.10286 8.48177 1.09375 7.91667 1.09375 7.1875V6.3125C1.09375 5.58333 1.10286 5.01823 1.12109 4.61719C1.15755 3.92448 1.23047 3.43229 1.33984 3.14062C1.55859 2.57552 1.95052 2.18359 2.51562 1.96484C2.82552 1.85547 3.31771 1.78255 3.99219 1.74609C4.39323 1.72786 4.95833 1.71875 5.6875 1.71875H6.5625C7.29167 1.71875 7.85677 1.72786 8.25781 1.74609C8.95052 1.78255 9.44271 1.85547 9.73438 1.96484C10.2995 2.18359 10.6914 2.57552 10.9102 3.14062C11.0195 3.43229 11.0924 3.92448 11.1289 4.61719C11.1471 5 11.1562 5.5651 11.1562 6.3125V7.1875C11.1562 7.91667 11.1471 8.48177 11.1289 8.88281C11.0924 9.55729 11.0195 10.0495 10.9102 10.3594Z" fill="white"/>
</svg>

<svg xmlns="http://www.w3.org/2000/svg" width="13" height="13" fill="none"><path fill="#fff" d="M6.125 3.605c-.565 0-1.094.146-1.586.438a3.153 3.153 0 0 0-1.148 1.148c-.274.474-.41.994-.41 1.559s.136 1.094.41 1.586a3.46 3.46 0 0 0 1.148 1.148c.492.274 1.02.41 1.586.41.565 0 1.085-.136 1.559-.41a3.153 3.153 0 0 0 1.148-1.148c.292-.492.438-1.02.438-1.586 0-.565-.146-1.085-.438-1.559a2.9 2.9 0 0 0-1.148-1.148 2.917 2.917 0 0 0-1.559-.438Zm0 5.196c-.565 0-1.048-.2-1.45-.602a1.975 1.975 0 0 1-.6-1.449c0-.565.2-1.048.6-1.45a1.975 1.975 0 0 1 1.45-.6c.565 0 1.048.2 1.45.6.4.402.6.885.6 1.45s-.2 1.048-.6 1.45a1.975 1.975 0 0 1-1.45.6Zm4.02-5.332a.82.82 0 0 1-.247.52.624.624 0 0 1-.492.218.71.71 0 0 1-.52-.219.71.71 0 0 1-.218-.52c0-.2.073-.373.219-.519a.71.71 0 0 1 .52-.219c.2 0 .373.073.519.22a.71.71 0 0 1 .219.519Zm2.078.738a5.565 5.565 0 0 0-.246-1.367 2.992 2.992 0 0 0-.766-1.176 2.992 2.992 0 0 0-1.176-.766C9.652.771 9.197.698 8.668.68 8.158.643 7.31.625 6.125.625S4.083.643 3.555.68c-.51.018-.957.09-1.34.218a3.23 3.23 0 0 0-1.203.766c-.328.328-.575.72-.739 1.176-.127.383-.21.838-.246 1.367C.01 4.717 0 5.565 0 6.75s.01 2.042.027 2.57c.037.51.119.957.246 1.34.164.456.41.857.739 1.203.346.328.747.565 1.203.711.383.146.83.228 1.34.246.528.037 1.385.055 2.57.055 1.185 0 2.033-.018 2.543-.055.529-.018.984-.09 1.367-.218.456-.165.848-.41 1.176-.739a3.23 3.23 0 0 0 .766-1.203c.127-.383.2-.83.218-1.34.037-.528.055-1.385.055-2.57 0-1.185-.01-2.033-.027-2.543Zm-1.313 6.152c-.219.547-.61.94-1.176 1.176-.291.11-.783.182-1.476.219-.383.018-.948.027-1.695.027h-.875c-.73 0-1.295-.009-1.696-.027-.674-.037-1.166-.11-1.476-.219-.547-.219-.94-.61-1.176-1.176-.11-.31-.182-.802-.219-1.476a39.893 39.893 0 0 1-.027-1.695v-.875c0-.73.009-1.295.027-1.696.037-.693.11-1.185.219-1.476.219-.565.61-.957 1.176-1.176.31-.11.802-.182 1.476-.219.401-.018.966-.027 1.696-.027h.875c.729 0 1.294.009 1.695.027.693.037 1.185.11 1.476.219.566.219.957.61 1.176 1.176.11.291.182.783.219 1.476.018.383.027.948.027 1.696v.875c0 .729-.009 1.294-.027 1.695-.037.674-.11 1.167-.219 1.476Z"/></svg>
